X: 6771
T: Chapel Bell, The
R: jig
M: 6/8
K: Edorian
B2E EFA|Bde ~d3|edB BAF|d2e dBA|
B2E EFA|Bde ~d3|edB BAF|AFE EFA:|
|:Bee efe|def f2e|dBB BAB|d2e dBA|
Bee efe|def f2e|dBB BAF|AFE EFA:|

